packages/IcoMoon/src/CommandIcon/index.svg

<svg version="1.1" xmlns="http://www.w3.org/2000/svg" width="16" height="16" viewBox="0 0 16 16">
<path d="M11.5 14c-1.379 0-2.5-1.121-2.5-2.5v-1.5h-2v1.5c0 1.379-1.122 2.5-2.5 2.5s-2.5-1.121-2.5-2.5 1.122-2.5 2.5-2.5h1.5v-2h-1.5c-1.378 0-2.5-1.122-2.5-2.5s1.122-2.5 2.5-2.5 2.5 1.122 2.5 2.5v1.5h2v-1.5c0-1.378 1.121-2.5 2.5-2.5s2.5 1.122 2.5 2.5-1.121 2.5-2.5 2.5h-1.5v2h1.5c1.379 0 2.5 1.121 2.5 2.5s-1.121 2.5-2.5 2.5zM10 10v1.5c0 0.827 0.673 1.5 1.5 1.5s1.5-0.673 1.5-1.5-0.673-1.5-1.5-1.5h-1.5zM4.5 10c-0.827 0-1.5 0.673-1.5 1.5s0.673 1.5 1.5 1.5 1.5-0.673 1.5-1.5v-1.5h-1.5zM7 9h2v-2h-2v2zM10 6h1.5c0.827 0 1.5-0.673 1.5-1.5s-0.673-1.5-1.5-1.5-1.5 0.673-1.5 1.5v1.5zM4.5 3c-0.827 0-1.5 0.673-1.5 1.5s0.673 1.5 1.5 1.5h1.5v-1.5c0-0.827-0.673-1.5-1.5-1.5z"></path>
</svg>

<svg xmlns="http://www.w3.org/2000/svg" viewBox="0 0 16 16">
  <path d="M11.5 14A2.502 2.502 0 019 11.5V10H7v1.5C7 12.879 5.878 14 4.5 14S2 12.879 2 11.5 3.122 9 4.5 9H6V7H4.5C3.122 7 2 5.878 2 4.5S3.122 2 4.5 2 7 3.122 7 4.5V6h2V4.5C9 3.122 10.121 2 11.5 2S14 3.122 14 4.5 12.879 7 11.5 7H10v2h1.5c1.379 0 2.5 1.121 2.5 2.5S12.879 14 11.5 14zM10 10v1.5c0 .827.673 1.5 1.5 1.5s1.5-.673 1.5-1.5-.673-1.5-1.5-1.5H10zm-5.5 0c-.827 0-1.5.673-1.5 1.5S3.673 13 4.5 13 6 12.327 6 11.5V10H4.5zM7 9h2V7H7v2zm3-3h1.5c.827 0 1.5-.673 1.5-1.5S12.327 3 11.5 3 10 3.673 10 4.5V6zM4.5 3C3.673 3 3 3.673 3 4.5S3.673 6 4.5 6H6V4.5C6 3.673 5.327 3 4.5 3z"/>
</svg>
